misc/icons/Mountain/16x16/apps/com.github.gi_lom.dialect.svg

<svg xmlns="http://www.w3.org/2000/svg" width="16" height="16" version="1.1">
 <path style="fill:#e4e4e4" d="M 7.7036484,4 H 14.954847 C 15.534142,4 16,4.4624238 16,5.03745 v 7.925101 C 16,13.537577 15.534142,14 14.954847,14 H 9.1851474 C 8.8888476,14 8.6949787,13.912113 8.5184728,13.705884 Z"/>
 <path style="fill:#6b6a6e" d="M 10.738621,6.896023 10.256556,6.869002 c 0.0052,0.1454595 -0.0052,0.2742484 -0.0272,0.4467337 -0.01099,0.091415 -0.03241,0.2098557 -0.05382,0.3495627 h -0.09259 c -0.3298708,0 -0.7419053,-0.037947 -1.028946,-0.086241 l 0.00579,0.4197108 c 0.3142412,0.027021 0.6551042,0.054045 1.028945,0.054045 h 0.0052 C 9.958519,8.660522 9.7420812,9.544786 9.4660335,10.082392 l 0.4004635,0.145459 c 0.0544,-0.09659 0.103011,-0.171911 0.167825,-0.2529808 0.362848,-0.4248769 0.95893,-0.8359901 1.602982,-0.8359901 0.633682,0 0.96413,0.5025295 0.96413,0.9003839 0,0.888286 -1.212977,1.098127 -2.469363,0.925656 l 0.113426,0.430632 c 1.646391,0.171912 2.800331,-0.242044 2.800331,-1.366635 0,-0.6243858 -0.504051,-1.2557016 -1.365173,-1.2557016 -0.563088,0 -1.050353,0.324872 -1.521499,0.6531581 0.113426,-0.3070119 0.237854,-0.9325555 0.335648,-1.3844553 0.687505,-0.027021 1.515779,-0.1132628 2.149565,-0.2259573 l -0.0052,-0.4087756 c -0.666096,0.1448838 -1.4296,0.2202023 -2.063341,0.2472255 0.0272,-0.1184381 0.0434,-0.2259577 0.05961,-0.3064381 0.03241,-0.145459 0.05961,-0.3121924 0.103011,-0.4518998 z m 2.230431,-0.1885726 -0.286653,0.1236111 c 0.146414,0.1995085 0.330062,0.5272144 0.43827,0.7479908 L 13.413502,7.450266 C 13.305283,7.2294897 13.104476,6.9011948 12.969052,6.7074417 Z m 0.601282,-0.2150217 -0.287041,0.1236114 c 0.151617,0.1989341 0.330449,0.5059459 0.449665,0.7422503 L 14.0256,7.2243293 C 13.92259,7.0248211 13.710974,6.6913601 13.570349,6.4924257 Z"/>
 <path style="fill:#7d45a8" d="m 10.64445,11.497808 c 0.103589,0.256998 0.07821,0.532336 -0.2963,0.735922 l -1.3111523,0.883105 c -0.219336,0.107514 -0.5925996,0.588738 0,0.875629 C 8.5329471,13.926922 8.4258793,13.569883 8.296248,13.26402 L 5.9258492,6.9350945 9.7555502,9.2900434 Z"/>
 <path style="fill:#cd50dc" d="m 1.0450496,1.0000516 h 5.6135493 c 0.5792956,0 0.836232,0.5510984 1.0451531,1.0887073 C 8.0492377,3.0873442 10.628571,11.503 10.628571,11.503 10.509357,11.249455 10.222301,11 9.9260012,11 H 1.0451534 C 0.46585749,11 4e-8,10.59661 4e-8,10.019806 V 2.0886556 c 0,-0.576803 0.46585745,-1.0887072 1.04515336,-1.0887072 z"/>
 <g style="fill:#e8b3e9" transform="matrix(0.15329194,0,0,0.14325621,2.6455124,8)">
  <path d="m 2.3125,0 h 11.328 c 8.2656,0 14.766,-6.1406 14.766,-13.875 0,-7.8594 -6.5,-14.047 -14.766,-14.047 H 2.3125 Z m 11.172,-22.33755 c 4.3906,0 8.398501,3.99415 8.398501,8.46295 0,4.375 -4.046516,8.9119306 -8.398501,8.2901999 H 8.8360001 V -22.33765 Z"/>
 </g>
</svg>

<svg xmlns="http://www.w3.org/2000/svg" width="16" height="16" version="1.1">
 <path style="fill:#e4e4e4" d="M 7.7036,4 H 14.955 C 15.534,4 16,4.4624 16,5.0374 V 12.963 C 16,13.538 15.534,14 14.955,14 H 9.1851 C 8.8888,14 8.695,13.912 8.5185,13.706 Z"/>
 <path style="fill:#6b6a6e" d="M 10.739,6.896 10.257,6.869 C 10.262,7.0145 10.251,7.1433 10.229,7.3157 10.218,7.4072 10.197,7.5256 10.176,7.6653 H 10.083 C 9.7531,7.6653 9.341,7.6274 9.054,7.5791 L 9.0598,7.9988 C 9.374,8.0258 9.7149,8.0528 10.089,8.0528 H 10.094 C 9.9585,8.6605 9.7421,9.5448 9.466,10.082 L 9.8665,10.228 C 9.9209,10.131 9.9695,10.056 10.034,9.9749 10.397,9.55 10.993,9.1389 11.637,9.1389 12.271,9.1389 12.601,9.6414 12.601,10.039 12.601,10.928 11.388,11.137 10.132,10.965 L 10.245,11.396 C 11.892,11.567 13.046,11.154 13.046,10.029 13.046,9.4045 12.542,8.7732 11.681,8.7732 11.118,8.7732 10.63,9.0981 10.159,9.4264 10.273,9.1194 10.397,8.4938 10.495,8.0419 11.182,8.0149 12.011,7.9287 12.644,7.816 L 12.639,7.4072 C 11.973,7.5521 11.21,7.6274 10.576,7.6544 10.603,7.536 10.619,7.4285 10.635,7.348 10.668,7.2025 10.695,7.0358 10.738,6.8961 Z M 12.969,6.7075 12.682,6.8311 C 12.829,7.0306 13.012,7.3583 13.121,7.5791 L 13.414,7.4503 C 13.305,7.2295 13.104,6.9012 12.969,6.7074 Z M 13.57,6.4924 13.283,6.616 C 13.435,6.815 13.614,7.122 13.733,7.3583 L 14.026,7.2243 C 13.923,7.0248 13.711,6.6914 13.57,6.4924 Z"/>
 <path style="fill:#1d7a4f" d="M 10.644,11.498 C 10.748,11.755 10.723,12.03 10.348,12.234 L 9.037,13.117 C 8.8177,13.224 8.4444,13.706 9.037,13.992 8.5329,13.927 8.4259,13.57 8.2962,13.264 L 5.9258,6.9351 9.7556,9.29 Z"/>
 <path style="fill:#33d17a" d="M 1.045,1.0001 H 6.6586 C 7.2379,1.0001 7.4948,1.5511 7.7038,2.0888 8.0492,3.0873 10.629,11.503 10.629,11.503 10.509,11.249 10.222,11 9.926,11 H 1.0452 C 0.46586,11 0,10.597 0,10.02 V 2.0887 C 0,1.5119 0.46586,0.99995 1.0452,0.99995 Z"/>
 <path style="fill:#ffffff" d="M 3,8 H 4.7365 C 6.0035,8 7,7.1203 7,6.0123 7,4.8864 6.0036,3.9999 4.7365,3.9999 H 3 Z M 4.7126,4.7999 C 5.3856,4.7999 5.9999,5.3722 5.9999,6.0123 5.9999,6.6391 5.3796,7.289 4.7126,7.2 H 4 V 4.7999 Z"/>
</svg>
